Numix-GalliumOS/22/mimetypes/application-x-krita.svg

<?xml version="1.0" encoding="UTF-8" standalone="no"?>
<svg
   xmlns:dc="http://purl.org/dc/elements/1.1/"
   xmlns:cc="http://creativecommons.org/ns#"
   xmlns:rdf="http://www.w3.org/1999/02/22-rdf-syntax-ns#"
   xmlns:svg="http://www.w3.org/2000/svg"
   xmlns="http://www.w3.org/2000/svg"
   xmlns:sodipodi="http://sodipodi.sourceforge.net/DTD/sodipodi-0.dtd"
   xmlns:inkscape="http://www.inkscape.org/namespaces/inkscape"
   width="22"
   height="22"
   viewBox="0 0 22 22"
   id="svg2"
   version="1.1"
   inkscape:version="0.91 r13725"
   sodipodi:docname="application-x-krita.svg">
  <metadata
     id="metadata16">
    <rdf:RDF>
      <cc:Work
         rdf:about="">
        <dc:format>image/svg+xml</dc:format>
        <dc:type
           rdf:resource="http://purl.org/dc/dcmitype/StillImage" />
        <dc:title></dc:title>
      </cc:Work>
    </rdf:RDF>
  </metadata>
  <defs
     id="defs14" />
  <sodipodi:namedview
     pagecolor="#ffffff"
     bordercolor="#666666"
     borderopacity="1"
     objecttolerance="10"
     gridtolerance="10"
     guidetolerance="10"
     inkscape:pageopacity="0"
     inkscape:pageshadow="2"
     inkscape:window-width="1366"
     inkscape:window-height="713"
     id="namedview12"
     showgrid="true"
     inkscape:zoom="22.627417"
     inkscape:cx="4.7236748"
     inkscape:cy="9.0225281"
     inkscape:window-x="0"
     inkscape:window-y="28"
     inkscape:window-maximized="1"
     inkscape:current-layer="svg2"
     showguides="true"
     inkscape:guide-bbox="true">
    <inkscape:grid
       type="xygrid"
       id="grid2993"
       empspacing="5"
       visible="true"
       enabled="true"
       snapvisiblegridlinesonly="true" />
  </sodipodi:namedview>
  <path
     style="fill:#9a773c;fill-opacity:1"
     d="M 3.9999999,0 C 3.527343,0 3,0.527344 3,1 l 0,20 c 0,0.445312 0.554687,1 0.9999999,1 L 18,22 c 0.445313,0 0.992367,-0.554753 1,-1 L 19,6 13,0 z"
     id="path4-3"
     inkscape:connector-curvature="0"
     sodipodi:nodetypes="ssssssccs" />
  <path
     style="fill:#000000;fill-opacity:0.19599998"
     d="m 14,6 5,5 0,-5 z"
     id="path6"
     inkscape:connector-curvature="0"
     sodipodi:nodetypes="cccc" />
  <path
     style="fill:#ffffff;fill-opacity:0.39200003"
     d="m 13,0 6,6 -5,0 C 13.554688,6 13,5.445312 13,5 z"
     id="path8"
     inkscape:connector-curvature="0"
     sodipodi:nodetypes="ccssc" />
  <path
     style="fill:#ffffff;fill-opacity:1;fill-rule:nonzero;stroke:none"
     d="m 7.137323,7.0000147 c -0.5856501,0 -1.470976,1.1538776 -1.0081341,1.5674433 l 2.4154439,2.158286 C 8.6359304,10.543492 8.7530066,10.356843 8.9156422,10.179824 9.09314,9.987544 9.264112,9.8619304 9.421652,9.7559793 L 7.6025415,7.3457315 C 7.4120435,7.1418704 7.3782094,7.0000147 7.137323,7.0000147 Z m 4.446284,2.7442455 c -0.126116,0 -0.259461,0.00435 -0.385578,0.0078 -0.525969,0.003 -1.077377,0.09472 -1.565621,0.2734488 -0.349178,0.283471 -0.591542,0.59599 -0.8226295,0.969765 -0.4611558,1.275764 0.088359,3.424747 2.1104785,3.923978 2.29219,0.563762 2.414626,-0.04579 3.396386,0.626977 0.986855,0.67102 0.43432,1.687862 0.902271,1.405327 0.240345,-0.14301 1.002366,-1.212127 0.718708,-2.956167 -0.307013,-1.868291 -1.10669,-2.863351 -1.911377,-3.543091 C 13.402454,9.9242887 12.477164,9.7442632 11.584578,9.7442632 Z"
     id="path47"
     inkscape:connector-curvature="0"
     sodipodi:nodetypes="cscccccsccccccccss" />
</svg>

<svg xmlns="http://www.w3.org/2000/svg" viewBox="0 0 22 22">
 <path d="m 4 0 c -0.473 0 -1 0.527 -1 1 l 0 20 c 0 0.445 0.555 1 1 1 l 14 0 c 0.445 0 0.992 -0.555 1 -1 l 0 -15 -6 -6 z" style="fill:#9a773c;fill-opacity:1"/>
 <path d="m 14 6 5 5 0 -5 z" style="fill:#000;fill-opacity:0.196"/>
 <path d="m 13 0 6 6 -5 0 c -0.445 0 -1 -0.555 -1 -1 z" style="fill:#fff;fill-opacity:0.392"/>
 <path d="m 7.137 7 c -0.586 0 -1.471 1.154 -1.01 1.567 l 2.415 2.158 c 0.091 -0.182 0.208 -0.369 0.371 -0.546 0.177 -0.192 0.348 -0.318 0.506 -0.424 l -1.819 -2.41 c -0.19 -0.204 -0.224 -0.346 -0.465 -0.346 m 4.446 2.744 c -0.126 0 -0.259 0.004 -0.386 0.008 -0.526 0.003 -1.077 0.095 -1.566 0.273 -0.349 0.283 -0.592 0.596 -0.823 0.97 -0.461 1.276 0.088 3.425 2.11 3.924 2.292 0.564 2.415 -0.046 3.396 0.627 0.987 0.671 0.434 1.688 0.902 1.405 0.24 -0.143 1 -1.212 0.719 -2.956 -0.307 -1.868 -1.107 -2.863 -1.911 -3.543 c -0.624 -0.528 -1.549 -0.708 -2.442 -0.708" style="fill:#fff;fill-opacity:1;stroke:none;fill-rule:nonzero"/>
</svg>
